X:68
T:Natterjack's
R:reel
M:4/4
L:1/8
K:A
|:E2 A/2B/2c  decB|Acea  gece|d~B3  Bcde|~f2fa  gecA|
E2  A/2B/2c  decB|Acea  gece|d~B3  Bcdf|1ecBd  cAAF :|2ecBd  cAAf||
|: fece  a2  f/2f/2f|efc2  BcAF|~E3F  ABcd-|dBcA  Bcdf|
fece  a2  f/2f/2f|efc2 BcAf|~E3F  ABcf|1ecBd  cAAf :|2ecBd  cAAf||
